images/svg/phone-black.svg

<svg width="18" height="24" viewBox="0 0 18 24" fill="none" xmlns="http://www.w3.org/2000/svg">
<g clip-path="url(#clip0_297083_8305)">
<path d="M14.7263 13.8651L12.8881 13.6552C12.4467 13.6046 12.0125 13.7566 11.7013 14.0677L10.3697 15.3993C8.3217 14.3572 6.64276 12.6855 5.60067 10.6303L6.93947 9.29144C7.25065 8.98025 7.40263 8.54605 7.35197 8.1046L7.1421 6.28092C7.05526 5.55 6.44013 5 5.70198 5H4.45002C3.63226 5 2.952 5.68026 3.00266 6.49802C3.38621 12.6783 8.32894 17.6138 14.5019 17.9973C15.3197 18.048 15.9999 17.3677 15.9999 16.55V15.298C16.0072 14.5671 15.4572 13.952 14.7263 13.8651Z" fill="#2E2F42"/>
</g>
<defs>
<clipPath id="clip0_297083_8305">
<rect width="18" height="24" fill="white"/>
</clipPath>
</defs>
</svg>

<svg xmlns="http://www.w3.org/2000/svg" width="18" height="24" fill="none"><g clip-path="url(#a)"><path fill="#2E2F42" d="m14.726 13.865-1.838-.21a1.441 1.441 0 0 0-1.187.413l-1.331 1.331A10.888 10.888 0 0 1 5.6 10.63l1.34-1.339a1.44 1.44 0 0 0 .412-1.186l-.21-1.824A1.448 1.448 0 0 0 5.702 5H4.45c-.818 0-1.498.68-1.447 1.498.383 6.18 5.326 11.116 11.499 11.5.818.05 1.498-.63 1.498-1.448v-1.252a1.434 1.434 0 0 0-1.274-1.433Z"/></g><defs><clipPath id="a"><path fill="#fff" d="M0 0h18v24H0z"/></clipPath></defs></svg>
